X: 928
T: Steel Guitar Rag
C:Leon McAulif*
B: jims roots
M:4/4
L:1/8
Q: 1/4=100
K:Dmaj
V:1 
A2ABd2 |: "D"(f8 | f2) d2ABd2 | "Dm6"(=f8 | f2) d2ABd2 | "D"(f4 f2)e2 |
"A"d2B2 A2F2 | "D"(D4 D)=F^FA | D2d2 ABd2 || "D"f6d2 | a6d2 |"Dm6"=f6e2 |
d2B2 ABd2 | "D"f6e2 | "A"d2B2 AFE2 | "D"D4 (=F/2^F/2)ABd | D4 d2f2 ||
"G"g2g6 | d2 B4 Bg | "D"f2e2 d2B2 | ddA6 | "E"{_B}=Bd^gd egde |
^gdeg de^gd | "A"aa2a ^g2g2 | "A7"=g6f2 || "G"g6d2 | B6 Bg| "D"f2e2 d2B2 |
ddA6 |"E"{_B}=Bd^gd egde | "A"Acac ea2g | "G"g3f edBA | "D"d8 ||
"D" A2f2 d2A2 | f3d2fd2 | A2f2 d2A2 | f3d2fd2 | A2f2 d2A2 |
f3d2fd2 | "A"A2c2 A2E2 | c3A2cA2 || "D" A2f2 d2A2 | f3d2fd2 |
"G"G2d2 B2G2 | d3B2dB2 |"D" A2f2 d2A2 | "A"ABcA BcAc | A2d2f2a2 |b2-f6 ||
% abcbook-tune_id 6298c287a9e4462553c8aaf2


% abcbook-boost 0
% abcbook-tablature 
% abcbook-transpose 
% abcbook-lastupdated 1654178440882
% abcbook-soundfonts 
% abcbook-repeats 1


